X: 40300
T: Tolka, The
R: polka
M: 2/4
K: Aminor
A>B cg|de cA|B/c/B/A/ Gd|AB GE|
A>B cg|de cA|B/c/B/A/ Gd|1 BA e/d/c/e/:|2 BA A2||
K:Gmaj
|:d>e fa|ga fd|g/e/d/c/ B d/c/|B/A/G B/A/G/B/|
A>B cg|de cA|B/c/B/A/ Gd|BA A2:|
|:e>f gf|d e>f g|fd g>e|dc B(d|
d/)c/B cg|de cA|B/c/B/A/ Gd|1 BA A2:|2 BA e/d/c/e/||
|:A>B cg|de cA|B/c/B/A/ Gd|AB G(d|
d/)c/B cg|de cA|B/c/B/A/ Gd|1 BA e/d/c/e/:|2 BA A2||
|:d>e fa|ga fd|g/e/d/c/ B/z/ d/c/|B/A/G B/c/ (d|
d/)c/B cg|de cA|B/c/B/A/ Gd|BA A2:|
|:e>f gf|d e>f g|fd g>e|dc B(d|
d/)c/B cg|de cA|B/c/B/A/ Gd|1 BA A2:|2 BA e/d/c/e/||

